src/actions/22/im-invisible-user.svg

<svg xmlns="http://www.w3.org/2000/svg" viewBox="0 0 22 22">
  <defs id="defs3051">
    <style type="text/css" id="current-color-scheme">
      .ColorScheme-Text {
        color:#363636;
      }
      </style>
  </defs>
 <path 
    style="fill:currentColor;fill-opacity:1;stroke:none" 
    d="M 11 3 A 3.9999902 4.0000296 0 0 0 7 7 A 3.9999902 4.0000296 0 0 0 11 11 A 3.9999902 4.0000296 0 0 0 15 7 A 3.9999902 4.0000296 0 0 0 11 3 z M 11 4 A 3 3.0000296 0 0 1 14 7 A 3 3.0000296 0 0 1 11 10 A 3 3.0000296 0 0 1 8 7 A 3 3.0000296 0 0 1 11 4 z M 11 12 A 7.9999504 8.0000296 0 0 0 3.0722656 19 L 4.0800781 19 A 6.9999604 7.0000296 0 0 1 11 13 A 6.9999604 7.0000296 0 0 1 12 13.080078 L 12 12.070312 A 7.9999504 8.0000296 0 0 0 11 12 z M 15.5 12 A 3.5 3.5 0 0 0 12 15.5 A 3.5 3.5 0 0 0 15.5 19 A 3.5 3.5 0 0 0 19 15.5 A 3.5 3.5 0 0 0 15.5 12 z M 16.792969 13.5 L 17.5 14.207031 L 14.207031 17.5 L 13.5 16.792969 L 16.792969 13.5 z "
    class="ColorScheme-Text"
    />  
    <path
       style="opacity:1;fill:#ffffff;fill-opacity:1;stroke:none"
       d="m 438.50726,539.29071 0.70703,0.70703 -3.29297,3.29297 -0.70703,-0.70703 z" />
</svg>

<svg xmlns="http://www.w3.org/2000/svg" viewBox="0 0 22 22">
    <path d="M11 3a4 4 0 0 0-4 4 4 4 0 0 0 4 4 4 4 0 0 0 4-4 4 4 0 0 0-4-4zm0 1a3 3 0 0 1 3 3 3 3 0 0 1-3 3 3 3 0 0 1-3-3 3 3 0 0 1 3-3zm0 8a8 8 0 0 0-7.928 7H4.08A7 7 0 0 1 11 13a7 7 0 0 1 1 .08v-1.01a8 8 0 0 0-1-.07zm4.5 0a3.5 3.5 0 0 0-3.5 3.5 3.5 3.5 0 0 0 3.5 3.5 3.5 3.5 0 0 0 3.5-3.5 3.5 3.5 0 0 0-3.5-3.5zm1.293 1.5.707.707-3.293 3.293-.707-.707 3.293-3.293z" style="fill:currentColor;fill-opacity:1;stroke:none;color:#050505;opacity:.7"/>
    <path d="m438.507 539.29.707.708-3.293 3.293-.707-.707z" style="opacity:1;fill:#fff;fill-opacity:1;stroke:none"/>
</svg>
